X:1
T:If Thou Wouldst Ease Thine Heart
T:If Thou Wouldst Ease Thine Heart
T:Copyright © CPDL
T:Copyright © CPDL
T:Copyright © CPDL
T:Copyright © CPDL
T:Copyright © CPDL
Z:Copyright © CPDL
%%score ( 1 2 ) { ( 3 4 ) ( 5 6 ) }
L:1/8
Q:1/4=100
M:4/4
K:G
V:1 treble nm="P1"
V:2 treble 
V:3 treble nm="P2"
V:4 treble 
V:5 bass nm="P3"
V:6 bass 
V:1
"^Editor: John Henry Fowler""^(  Revision:   6 - 4 - 2008  )""^Andante.""^Words by Thomas Lovell Beddoes - (1803-1849)""^From \"English Lyrics\" -  Set 3 -  Number 2" z8 | %1
w: |
 z8 |"^Charles Hubert Hastings Parry""^( 1848 - 1918 )" z8 | z8 | z8 |!p! D2 DD B2 B2 | %6
w: ||||If thou wouldst ease thine|
 G6!<)!!<(! G2 |!>(! c3 B A2!>)! E2 | (G2 F2) z2 F2 |!p! B4 G4 | B8 | z!p! B B>A d2 G2 | %12
w: heart Of|love and all its|smart, _ Then|sleep, dear~!|sleep~!|And not a sor- row|
 G2 GF !>!B2 GE | D>^C C2 z CDG |!<(! F>E!<)! A6- | A2 z2 z!p! D=FA | B2 E2 =F G2 A | %17
w: hang a- ny tear on thine|eye- lash- es; Lie still and|deep sad soul~!|_ Un- til the|sea- wave wash- es the|
!<(! B2!<)! ^G>G!>(! d3!>)! c |"^rit." B F3 z4 | z2!p!"^rit." G2 (c B2) A | G6 z2 | z8 | z8 | z8 | %24
w: rim of the sun to-|mor- row|In East- * ern|sky.||||
 z!p!"^cresc."!<(! DD!<)!"^poco animando"D !>!B2 B2 |!<(! G6!<)!!mf! G2 | d3 c B2 A2 | %27
w: But would'st thou cure thine|heart Of|love and all its|
 (^A2"^cresc." B2) z2!f! ^c2 |"^rit."!<(! ^d6!<)!!>(! ^c2!>)! |"^a tempo" B8 | %30
w: smart _ Then|die, dear,|die.|
"^Poco agitato." z!p! BBA d2 G2 | z!<(! G G>F!<)!!>(! cBG!>)!E | D2 ^C2 z4 |!p! z2 F2 A3 ^E | %34
w: 'Tis deep- er sweet- er|Than on a rose bank to lie|dream- ing|With tranc- ed|
 F6 z2 | z F"^cresc." A>B ^G4 | z ^G B>D!<(! =F E2!<)! A | A2 =F4 A2 | c8- | c2 G2 z4 | z8 | %41
w: eye|And then a- lone|A- mid the beam- ing of|Loves stars thou'lt|greet|_ her||
 z2!p!"^rit." A2 d3 B | G8 | z8 | z8 | z8 | z8 |] %47
w: in East- ern|sky.|||||
V:2
 x8 | x8 | x8 | x8 | x8 | x8 | x8 | x8 | x8 | x8 | x8 | x8 | x8 | x8 | x8 | x8 | x8 | x8 | x8 | %19
 x8 | x8 | x8 | x8 | x8 | x8 | x8 | x8 | x8 | x8 | x8 | x8 | x8 | x8 | x8 | x8 | x8 | x8 | x8 | %38
 x8 | x8 | x8 | x4 e3 d | x8 | x8 | x8 | x8 | x8 |] %47
V:3
 !>![GB]4- [GB](G^D>E) | !>![EG]4- [EG](EB,>C) | !tenuto![CE]4 !tenuto![A,C]4 | %3
!>(! !tenuto![E,=G,C]4 ([E,F,C]3!>)! [=C,A,]) | %4
!>(! ([D,G,B,]2 [B,,D,G,]2) ([D,G,B,]2!>)! [B,,D,G,]2) | %5
 ([D,G,B,]2 [B,,D,G,]2) ([D,G,B,]2 [B,,D,G,]2) | ([D,G,B,]2 [B,,D,G,]2) ([D,F,B,]2 [B,,D,F,]2) | %7
 ([E,G,C]2 [C,E,G,]2) ([E,G,C]2 [C,E,G,]2) | ([E,G,C]2 [C,E,F,]2) ([E,G,C]2 [C,E,F,]2) | %9
 ([^D,F,B,]2 [B,,D,F,]2) ([G,B,^C]2 [^C,G,B,]2) | ([F,B,^D]2 [^D,F,B,]2) z2[K:treble] (3(DFB) | %11
 z (!>![_EFB]2 [EFA]) z ([DGd]2 [DG]) | z (G2 F) z ([B,EB]2 [B,E]) | %13
 z[K:bass] ([E,G,=D]2 [E,G,^C]) z [E,G,C] z [D,G,D] | %14
!<(! z [G,A,E]2 [G,A,E]!<)! z[K:treble] ([B,AB] [^C^c][Ff]) | %15
 [EAe]>!>(![^C^c] [Dd]2 z [A,DA]2!>)! [A,DA] | [^G,D^G]2 (3G,DG (3[A,DA]=FE (3DFA, | %17
 [^G,D^G]2 (3G,DG (3([CA]E^D (3ECA,) |"^rit." B!<(! (.[B,^D].[^CE].[DF])!<)! z (.[EG].A.[CGB]) | %19
 z (Bcd) ([^DG^d][Ee]) [A=da]2 | [GBg]2 z2 z2 (^CD) | (F>E) !>![B,GB]4[K:bass] (B,>D) | %22
 (D>C) (G3 E) (A,>C) | ([D,G,B,]2 [B,,D,G,]2) ([D,G,B,]2 [B,,D,G,]2) | %24
 ([D,G,B,]2 [B,,D,G,]2) ([^D,G,B,]2 [B,,D,G,]2) | ([E,G,C]2 [C,E,G,]2) ([G,CE]2 [E,G,C]2) | %26
 ([CDF]2 [F,CD]2) ([CDA]2 [F,CD]2) | ([DGB]2 [B,DG]2) ([GB^c]2 [^CGB]2) | %28
 ([FB^d]2 [^DFB]2) ([E^Af]2 [EFA]2) | [^DFB]2 x2 x2 (3^CDF | %30
!p! z !>![_EFB]2 [EFA] z !>![DGd]2 [DG] | z [C^DG]2 [CDF] z [B,EB]2 [B,E] | %32
 z ([^CEG][G,CE]) z ([B,DF][F,B,D]) z2 | z (.[A,^CG]2 .[F,A,C])[K:bass] z (.[F,B,C]2 .[^E,B,C]) | %34
 [F,A,^C]2 z2 z2[K:treble]!<(! (C>!<)!F) |!<(! [^CFA]2 z C ([^B,E]!<)!^D) ([B,D]>^G) | %36
!<(! ([=D^GB]3 D)!<(! ([^G,D=F]!<)![A,CE]) ([CE]>!<)!A) | %37
 z [C=FAc] ([Dd][Ee]) ([Ece][F=f][Aa][cc']) | [ec'e'] ([Gg][Aa][Bb]) ([Bgb][cc'][ee']>[gg']) | %39
 [gc'e'g']2 z2 z2 [Ec]2 | B2 (A4 G2) | G2 (E4 F2) | [B,G]2 z2 z2!<(! (^C>!<)!F) | %43
 ([G,B,F]>E) [B,GB]2- ([B,GB][A,A]) ([EGe]>c) | [GB]4 D(GB>e) | g4 [dgd']4- | [dgd']2 z2 z4 |] %47
V:4
 x8 | x8 | x8 | x8 | x8 | x8 | x8 | x8 | x8 | x8 | x6[K:treble] x2 | x8 | x [DE]2 [CD] x4 | %13
 x[K:bass] x7 | x5[K:treble] x3 | x8 | x8 | x8 | x8 | x G3 x4 | x8 | x6[K:bass] x2 | %22
 [E,A,]2 [G,C]3 z (F,E,) | x8 | x8 | x8 | x8 | x8 | x8 | x8 | x8 | x8 | x8 | x4[K:bass] x4 | %34
 x6[K:treble] x2 | x8 | x8 | x8 | x8 | x8 | E6 E2 | C8 | x8 | x8 | g8- | !>!d4 x4 | x8 |] %47
V:5
!mf! z!<(! (^D!<)!!>(! F>!>)!E) B,2 z2 | z!<(! (B,!<)!!>(! =D>!>)!C) G,2 z2 | %2
 z!<(! (^G,!<)!!>(! B,>!>)!A,) z!<(! (^D,!<)!!>(! F,>!>)!E,) | %3
"^dim." z!<(!!>(! (^G,,!<)!!>(! B,,>!>)!A,,) z (^C,,!>)! D,,2) | %4
!>(! ((G,,, D,,2)) D,, G,,, D,,2!>)! D,, | (G,,, D,,2) D,, (G,,, D,,2) D,, | %6
 ((G,,, G,,2))!<(! G,, G,,, G,,2!<)! G,, | (G,,,!>(! G,,2) G,, (G,,,!>)! G,,2) G,, | %8
 (A,,, A,,2) A,, (A,,, A,,2) A,, |!p! (B,,, B,,2) B,,, (E,,, E,,2) E,, | %10
 (B,,,F,,B,,^D, F,B,)!p! x2 | (!>!C4 B,2) z2 |!p! (!>!A,4 G,2) z2 |!p! !>!^A,,4 (A,,2 B,,2) | %14
"^cresc."!<(! x4!<)! z!<(! A,2!<)! A, | z"^dim."!>(! A,2 A,!>)! x4 | %16
 (3(E,,B,,E, x2 [B,,,B,,]2) x2 | (3(E,,B,,E, x2 [B,,,B,,]2) x2 | %18
"^poco cresc." [B,,,B,,]!<(![B,,^D,][^C,E,][D,F,]!<)! [E,,,E,,] [E,G,][F,A,][C,G,B,] | %19
!p! x"^rit." =DCB, x4 | [G,,,G,,] (^C,D,G,) (^A,B,) z2 | E,,(^A,,D,G, A,B,) z2 | %22
!<(! ([A,,,A,,]B,,C,E,!<)!!>(! A,2)!>)! D,,2 |!pp! ((G,,, D,,2))!<(! D,, (G,,, D,,2)!<)! D,, | %24
 ((G,,, D,,2))!<(! D,, G,,, G,,2!<)! G,, | (G,,,!>(! G,,2) G,, (G,,,!>)! G,,2) G,, | %26
 G,,,"^cresc.     molto" (A,,2 D,) G,,, [A,,D,]2 [A,,D,] | %27
 [G,,,G,,] [D,G,]2 [D,G,] [E,,,E,,] [^C,E,G,]2 [G,B,] | %28
!f! [F,,,F,,]"^rit." [B,,^D,F,]2 [D,F,B,] [F,,,F,,]!>(! [^C,F,^A,]2 [F,A,^C] | %29
 [B,,,B,,]!>)!"^a tempo"(F,,B,,^D,) (3(^E,F,B, x2) | (=C4 B,2) z2 | (A,4 G,2) z2 | %32
 (!>!^A,,4 B,,4) | ^C,8 | ([F,,,F,,]A,,^C,F,) (^G,A,) z2 | %35
!<(! ^D,,"^cresc."^D,F,A, [^G,,F,]2!<)! z2 |!<(! E,,"^cresc."B,,E,B,!<)! x4 | %37
 z [C,=F,A,]2 [C,F,A,] z [F,A,C]2 [F,A,C] | z [E,G,C]2 [G,CE][K:treble] z [CE]2 [EGc] | %39
 [EGce]2 z2 z2[K:bass]!p! [C,G,]2 |!<(! G,2 (A,2!<)! _B,4) |"^rit." [D,A,]8 | %42
 G,,(^C,D,G,) (^A,B,) z2 | E,,"^rit."B,,E,G, C,,C,E,A, | [G,,,G,,](D,G,B,) x2 x2 | %45
 z4!pp! [D,G,B,D]4- | [D,G,B,D]2 z2 z4 |] %47
V:6
 x8 | x8 | x8 | x8 | x8 | x8 | x8 | x8 | x8 | x8 | B,,,2 x2 x4 | x8 | x8 | x8 | (^C,4 G,4) | %15
 (F,4 =F,4) | E,,4 x4 | E,,4 x4 | x8 | [D,,,D,,] D,3- ([D,A,C]2 [CF]2) | x8 | E,,2 x2 x4 | x8 | %23
 x8 | x8 | x8 | x8 | x8 | x8 | x8 | x8 | x8 | x8 | x8 | x8 | (^D,,4 x4) | (E,,4 A,,2) z2 | %37
 =F,,4 x4 | [C,,C,]8[K:treble] | x6[K:bass] x2 | ^C,8 | x8 | [G,,,G,,]2 z2 z4 | E,,4 C,,4 | %44
 G,,,4 z4 | x8 | G,,,2 x2 z4 |] %47

